!!!COM: Palestrina, Giovanni Perluigi da
!!!OPR: Memor esto
!!!OTL: Gloria
**kern	**kern	**kern	**kern	**kern
*Ibass	*Itenor	*Itenor	*Icalto	*Icant
!Bassus	!Tenor 2	!Tenor 1	!Altus	!Cantus
*clefF4	*clefGv2	*clefGv2	*clefG2	*clefG2
*k[b-]	*k[b-]	*k[b-]	*k[b-]	*k[b-]
*G:dor	*G:dor	*G:dor	*G:dor	*G:dor
*M4/2	*M4/2	*M4/2	*M4/2	*M4/2
=1	=1	=1	=1	=1
1.G	1.d	1.B	1.g	0r
2G	2d	2B	2g	.
=2	=2	=2	=2	=2
1C	1e-	1c	1g	0r
1D	1d	1A	1f	.
=3	=3	=3	=3	=3
1.G	2d	4G	2.b-	1.dd
.	.	4A	.	.
.	2d	4B-	.	.
.	.	4c	4a	.
.	2B-	[1d	2g	.
2D	2A	.	2f	2dd
=4	=4	=4	=4	=4
2B-	1G	1d]	2g	1dd
2B-	.	.	2d	.
1A	1r	2r	1e	1cc
.	.	[2a	.	.
=5	=5	=5	=5	=5
1D	1r	2a]	2.d	2.ff
.	.	1f	.	.
.	.	.	4e	4ee
1r	2r	.	2f	2dd
.	[2g	2e	2g	2cc
=6	=6	=6	=6	=6
1r	2g]	1d	1a	2dd
.	2f#	.	.	2a
2r	2g	1G	1r	1b-
[2d	2d	.	.	.
=7	=7	=7	=7	=7
2d]	2f	1r	2r	1a
2c#	2e	.	1a	.
1d	4d	2r	.	1ff
.	4e	.	.	.
.	4f	[2d	4d	.
.	4g	.	4e	.
=8	=8	=8	=8	=8
1A	1a	2d]	4f	2ff
.	.	.	4g	.
.	.	2c#	2a	1ee
1B-	1r	2d	2f	.
.	.	2d	2g	[2dd
=9	=9	=9	=9	=9
1A	2r	1e	1a	2dd]
.	2A	.	.	2cc#
2r	[1B-	[1d	2f	1dd
2G	.	.	2g	.
=10	=10	=10	=10	=10
2G	2B-]	1d]	2g	1r
2F#	2A	.	2a	.
2.G	2.B-	2r	2g	[1dd
.	.	[2g	[2b-	.
8F	4c	.	.	.
8E	.	.	.	.
=11	=11	=11	=11	=11
1D	1d	2g]	2b-]	2dd]
.	.	2f#	2a	2dd
1r	1r	1g	[1b-	2dd
.	.	.	.	2ee
=12	=12	=12	=12	=12
0r	1r	2d	2b-]	2ff
.	.	2f	2a	2.dd
.	2r	1e	1g	.
.	.	.	.	8cc#
.	.	.	.	8b
.	[2g	.	.	2cc#
=13	=13	=13	=13	=13
2r	2g]	1d	1a	2.dd
1d	2.f	.	.	.
.	.	.	.	8cc
.	.	.	.	8b-
.	.	1r	1r	[1a
.	8e	.	.	.
.	8d	.	.	.
2c#	2e	.	.	.
=14	=14	=14	=14	=14
2d	1f	2r	1r	0a]
2d	.	1d	.	.
1A	1e	.	2r	.
.	.	2c#	[2a	.
=15	=15	=15	=15	=15
2.D	4d	2d	2a]	2r
.	4e	.	.	.
.	4f	2d	2a	2dd
4E	4g	.	.	.
4F	[1a	[1A	2f	2dd
4G	.	.	.	.
2A	.	.	2e	2cc
=16	=16	=16	=16	=16
1D	2a]	0A]	4d	2.dd
.	.	.	4e	.
.	2d	.	4f	.
.	.	.	4g	4ee
1r	2d	.	1a	2ff
.	2c#	.	.	[2ee
=17	=17	=17	=17	=17
0r	1d	1f	1a	4ee]
.	.	.	.	4dd
.	.	.	.	1dd
.	1A	2e	2a	.
.	.	2e	2a	2cc#
=18	=18	=18	=18	=18
1G	2.B-	4d	2.g	[0dd
.	.	4c	.	.
.	.	4B-	.	.
.	4c	4A	4a	.
2G	[1d	2G	2b-	.
2F#	.	2A	[2a	.
=19	=19	=19	=19	=19
1G	0d]	2.B-	4a]	0dd]
.	.	.	4g	.
.	.	.	1g	.
.	.	8A	.	.
.	.	8G	.	.
1D	.	1A	.	.
.	.	.	2f#	.
=20	=20	=20	=20	=20
2G	1.B	1G	2g	2r
1G	.	.	1g	1dd
.	.	2r	.	.
2C	2c	[2g	2e	2ee
=21	=21	=21	=21	=21
1C	1c	2g]	1e	1ee
.	.	2c	.	.
[1F	[1A	1c	[1a	1ff
=22	=22	=22	=22	=22
2F]	2A]	1f	2a]	1cc
2F	2A	.	2a	.
1D	2.d	2f	1a	1dd
.	.	2f	.	.
.	4c	.	.	.
=23	=23	=23	=23	=23
1G	1B	1d	1g	1dd
1C	2.c	2e	4g	1cc
.	.	.	4f	.
.	.	[2g	4e	.
.	4B-	.	4d	.
=24	=24	=24	=24	=24
0r	1A	2g]	1c	2r
.	.	2f#	.	1cc
.	1G	1g	2r	.
.	.	.	[2g	2b
=25	=25	=25	=25	=25
2r	1A	1c	2g]	2cc
1c	.	.	2f#	2a
.	1G	2r	1g	2dd
2B	.	2d	.	2dd
=26	=26	=26	=26	=26
1c	0r	2e	2g	1cc
.	.	2e	2g	.
1F	.	2.f	2a	2r
.	.	.	2a	[2cc
.	.	4e	.	.
=27	=27	=27	=27	=27
2G	0r	2d	2.g	2cc]
2G	.	1e	.	2b
.	.	.	4f	.
1A	.	.	4e	2cc
.	.	.	4d	.
.	.	[2f	2c	2cc
=28	=28	=28	=28	=28
2.B-	1r	4f]	0d	2f
.	.	4e	.	.
.	.	4d	.	2f
4A	.	4c	.	.
1G	2r	2.B-	.	2g
.	[2g	.	.	2g
.	.	8A	.	.
.	.	8G	.	.
=29	=29	=29	=29	=29
1D	4g]	1d	2r	2a
.	4f#	.	.	.
.	2f#	.	2a	2.dd
1r	2g	2r	2b-	.
.	.	.	.	4dd
.	2e-	[2g	2g	2cc
=30	=30	=30	=30	=30
0r	1d	4g]	2a	1dd
.	.	4f#	.	.
.	.	2f#	2a	.
.	1G	1g	2b	2dd
.	.	.	2b	2ee
=31	=31	=31	=31	=31
0r	1A	2c	4cc	2ee
.	.	.	4b-	.
.	.	2c	4a	2.ff
.	.	.	4g	.
.	1B-	1d	2f	.
.	.	.	.	4ee
.	.	.	2g	[2dd
=32	=32	=32	=32	=32
1r	1A	1e	1.a	2dd]
.	.	.	.	2cc#
2r	[1d	2f#	.	1dd
[2G	.	[2g	[2b-	.
=33	=33	=33	=33	=33
2G]	2d]	2g]	2b-]	2r
2F#	2d	2a	2a	1dd
1G	1d	2.g	2b	.
.	.	.	2b	2dd
.	.	4f	.	.
=34	=34	=34	=34	=34
1C	2.c	4e	4cc	1ee
.	.	4d	4b-	.
.	.	2e	4a	.
.	4B-	.	4g	.
1D	2A	1d	2f	4ff
.	.	.	.	4ee
.	2F	.	[2a	4dd
.	.	.	.	4cc
=35	=35	=35	=35	=35
2E-	2B-	1G	4a]	2b-
.	.	.	4g	.
2E-	2c	.	1g	2g
1D	1d	2A	.	2dd
.	.	2A	2f#	2dd
=36	=36	=36	=36	=36
2r	2r	1G	1g	0b
2.G	2.d	.	.	.
.	.	1r	2r	.
4G	4d	.	.	.
2G	2d	.	[2g	.
=37	=37	=37	=37	=37
1c	1e	0r	4g]	0r
.	.	.	4g	.
.	.	.	2g	.
2c	2e	.	1a	.
[2d	[2f	.	.	.
=38	=38	=38	=38	=38
2d]	2f]	1r	2a	0r
2G	1g	.	2b-	.
2.d	.	2r	2a	.
.	[2f	[2d	[2a	.
4c	.	.	.	.
=39	=39	=39	=39	=39
2B-	4f]	4d]	2a]	1r
.	4e	4d	.	.
2B-	1d	2d	2g	.
1A	.	1e	1a	2r
.	4c#	.	.	[2a
.	4B	.	.	.
=40	=40	=40	=40	=40
0r	2c#	2e	2r	4a]
.	.	.	.	4a
.	2d	2f#	2.d	2a
.	1G	2g	.	1b
.	.	.	4d	.
.	.	[2g	2d	.
=41	=41	=41	=41	=41
0r	1c	4g]	1e	2cc
.	.	4f	.	.
.	.	4e	.	2cc
.	.	4d	.	.
.	1A	2.c	2e	2cc
.	.	.	2f	[2cc
.	.	4d	.	.
=42	=42	=42	=42	=42
0r	2G	2e	1g	2cc]
.	2G	1d	.	2b-
.	[1A	.	2.e	1a
.	.	2c#	.	.
.	.	.	4e	.
=43	=43	=43	=43	=43
0D	1A]	1d	2d	0ff
.	.	.	1a	.
.	[1d	1A	.	.
.	.	.	[2f	.
=44	=44	=44	=44	=44
0BB-	1d]	2.B-	4f]	0dd
.	.	.	4e	.
.	.	.	4d	.
.	.	4c	4e	.
.	[1B-	1d	1f	.
=45	=45	=45	=45	=45
0E-	1B-]	1e-	0g	2.b-
.	.	.	.	4a
.	1G	2.e-	.	2b-
.	.	.	.	[2cc
.	.	4d	.	.
=46	=46	=46	=46	=46
0F	2A	2c	0f	2cc]
.	2B-	2d	.	1b-
.	4c	1c	.	.
.	4F	.	.	.
.	2f	.	.	2a
=47	=47	=47	=47	=47
2r	2d	2B-	2r	2.b-
1G	1B-	1d	2b-	.
.	.	.	.	4cc
.	.	.	2g	1dd
2G	2B-	2d	[2b-	.
=48	=48	=48	=48	=48
1F	1c	0f	4b-]	1r
.	.	.	8a	.
.	.	.	8g	.
.	.	.	2a	.
1B-	1d	.	[1b-	2r
.	.	.	.	[2dd
=49	=49	=49	=49	=49
2G	1d	2g	2b-]	2dd]
2B-	.	2d	2g	2dd
1A	1r	2f	1a	1cc
.	.	2e	.	.
=50	=50	=50	=50	=50
0D	2r	4d	1a	1ff
.	.	4e	.	.
.	1d	4f	.	.
.	.	4g	.	.
.	.	2a	1a	2dd
.	2d	2d	.	2ff
=51	=51	=51	=51	=51
1A	1c	1e	0a	2.ee
.	.	.	.	4cc
2r	1f	2.d	.	4dd
.	.	.	.	4ee
[2d	.	.	.	[2ff
.	.	4e	.	.
=52	=52	=52	=52	=52
4d]	2d	1f	0r	4ff]
4c	.	.	.	4ee
4B-	2f	.	.	1dd
4A	.	.	.	.
2G	1e	2g	.	.
2A	.	[2e	.	2cc#
=53	=53	=53	=53	=53
2F	2A	4e]	2r	1dd
.	.	8d	.	.
.	.	8c	.	.
2G	1B-	1d	1g	.
1E-	.	.	.	1r
.	4A	2c	2g	.
.	4G	.	.	.
=54	=54	=54	=54	=54
1D	1A	2d	1f	1r
.	.	1d	.	.
1r	[1G	.	2.b-	2r
.	.	2d	.	[2dd
.	.	.	4a	.
=55	=55	=55	=55	=55
0r	1G]	1B-	4g	2dd]
.	.	.	4a	.
.	.	.	1b-	2dd
.	1r	2.f	.	1cc
.	.	.	4a	.
.	.	4e	4g	.
=56	=56	=56	=56	=56
1r	2r	1d	4a	2.ff
.	.	.	4g	.
.	1d	.	2f	.
.	.	.	.	4ee
[1G	.	2.B-	2g	4dd
.	.	.	.	4cc
.	2d	.	[2d	4b-
.	.	4c	.	4a
=57	=57	=57	=57	=57
2G]	1B-	1d	2d]	4g
.	.	.	.	4a
2G	.	.	2B-	2.b-
1F	2.f	1r	2c	.
.	.	.	.	8a
.	.	.	.	8g
.	.	.	[2f	2a
.	4e	.	.	.
=58	=58	=58	=58	=58
2.B-	4d	2r	4f]	1.b-
.	4c	.	4e	.
.	2d	1d	2f	.
4A	.	.	.	.
4G	1B-	.	4g	.
4A	.	.	4f	.
2B-	.	2d	4e	2g
.	.	.	4d	.
=59	=59	=59	=59	=59
1A	1r	1c	1e	1a
1D	1d	2.f	1a	2r
.	.	.	.	[2dd
.	.	4e	.	.
=60	=60	=60	=60	=60
1G	2B-	4d	1g	2dd]
.	.	4c	.	.
.	2G	4B-	.	2dd
.	.	4A	.	.
2G	4d	1G	1g	1b-
.	4B-	.	.	.
2E-	[2e-	.	.	.
=61	=61	=61	=61	=61
0C	4e-]	2.c	0g	2.ee-
.	4d	.	.	.
.	4c	.	.	.
.	4B-	4d	.	4dd
.	1c	1e-	.	1cc
=62	=62	=62	=62	=62
0G	0B	0d	0g	0dd
=63	=63	=63	=63	=63
0r	0r	0r	1d	1r
.	.	.	1g	1g
=64	=64	=64	=64	=64
0r	1r	2r	2g	1dd
.	.	2d	2a	.
.	1G	1g	[1b-	2dd
.	.	.	.	2ee
=65	=65	=65	=65	=65
0r	1d	2.f	2b-]	1.ff
.	.	.	4a	.
.	.	8e	4g	.
.	.	8d	.	.
.	2d	2f	4a	.
.	.	.	4b-	.
.	2e	2g	[2cc	4ee
.	.	.	.	4dd
=66	=66	=66	=66	=66
0r	2.f	2.a	2cc]	2cc
.	.	.	2a	2dd
.	8e	8g	.	.
.	8d	8f	.	.
.	2c	2g	4cc	2ee
.	.	.	4b-	.
.	2d	2f	4a	[2ff
.	.	.	4g	.
=67	=67	=67	=67	=67
1D	1f	1d	1a	4ff]
.	.	.	.	4ee
.	.	.	.	4dd
.	.	.	.	4cc
1G	2.g	1d	2g	4b-
.	.	.	.	4cc
.	.	.	[2b-	[2dd
.	4f	.	.	.
=68	=68	=68	=68	=68
2G	1e	1r	2b-]	2dd]
2A	.	.	4a	2cc#
.	.	.	4g	.
1B-	1d	2r	2f	2.dd
.	.	2G	[2b-	.
.	.	.	.	4cc
=69	=69	=69	=69	=69
2.G	0r	1d	4b-]	1.b-
.	.	.	4a	.
.	.	.	2g	.
4A	.	.	.	.
2B-	.	2d	2f	.
2c	.	2e	2e	4a
.	.	.	.	4g
=70	=70	=70	=70	=70
1F	1r	1f	4d	1a
.	.	.	4c	.
.	.	.	1c	.
1G	2r	2d	.	1g
.	[2g	[2e	2B	.
=71	=71	=71	=71	=71
1A	2g]	2e]	1c	2r
.	2f#	4d	.	1cc
.	.	4c	.	.
1G	1g	1d	1r	.
.	.	.	.	2b
=72	=72	=72	=72	=72
0r	1c	1e	2r	1cc
.	.	.	1cc	.
.	1d	1r	.	1f
.	.	.	2b	.
=73	=73	=73	=73	=73
0r	2e	1r	1cc	2g
.	1f	.	.	2.a
.	.	2r	1f	.
.	.	.	.	4g
.	2d	[2f	.	4a
.	.	.	.	4b-
=74	=74	=74	=74	=74
1r	2c	2f]	1g	0cc
.	2c	2e	.	.
2r	1F	1f	1a	.
[2c	.	.	.	.
=75	=75	=75	=75	=75
2c]	1G	1d	1.g	2r
2B	.	.	.	2dd
1c	2r	1e	.	2cc
.	2c	.	2g	[2cc
=76	=76	=76	=76	=76
1F	2c	2.f	1a	2cc]
.	1d	.	.	2a
.	.	4e	.	.
1G	.	2d	4g	1b-
.	.	.	4f	.
.	[2e	[2g	4e	.
.	.	.	4d	.
=77	=77	=77	=77	=77
0A	2e]	2g]	2c	0a
.	1d	2f	2d	.
.	.	1e	2e	.
.	2c#	.	[2A	.
=78	=78	=78	=78	=78
1D	1d	2f#	2A]	2r
.	.	2f#	1d	2a
1G	1r	1g	.	1b-
.	.	.	2d	.
=79	=79	=79	=79	=79
2G	1r	2g	2e	2b-
2A	.	4f	2.f	4a
.	.	4e	.	4g
2.B-	2r	1d	.	2f
.	.	.	4e	.
.	2G	.	4d	2g
4A	.	.	4c	.
=80	=80	=80	=80	=80
2G	1d	1r	2B-	2g
2F#	.	.	2A	2a
1G	2d	2r	1G	1b-
.	2e	2G	.	.
=81	=81	=81	=81	=81
1D	2.f	1d	2A	2a
.	.	.	2a	2ff
.	4e	.	.	.
1r	2d	2d	2a	2ff
.	2c#	2e	2a	[2ee
=82	=82	=82	=82	=82
0r	1d	2f	1a	2ee]
.	.	2f	.	1dd
.	1A	1e	1a	.
.	.	.	.	2cc#
=83	=83	=83	=83	=83
1.G	2r	2g	1.b	2dd
.	1d	1g	.	1dd
2G	2d	2g	2b	2dd
=84	=84	=84	=84	=84
1G	2d	2.g	1b	1dd
.	1g	.	.	.
.	.	4f	.	.
1c	.	4e	1cc	1ee
.	.	4d	.	.
.	2g	4c	.	.
.	.	4B-	.	.
=85	=85	=85	=85	=85
2c	1a	2A	2cc	2ee
1d	.	1f	1a	1ff
.	2d	.	.	.
2G	[2g	2g	2b-	2dd
=86	=86	=86	=86	=86
1d	2g]	2a	1a	2dd
.	1f	4d	.	1dd
.	.	4e	.	.
2.A	.	4f	1a	.
.	.	4g	.	.
.	4e	2a	.	[2cc
4B	4d	.	.	.
=87	=87	=87	=87	=87
2c	2e	2g	1r	2cc]
2d	1f	2f	.	2b
1c	.	1g	2r	1cc
.	2e	.	2cc	.
=88	=88	=88	=88	=88
2r	2f	1a	1cc	2r
2F	2c	.	.	2a
1F	2c	2r	[1a	1cc
.	[2A	2f	.	.
=89	=89	=89	=89	=89
1D	2A]	1f	2a]	1dd
.	2d	.	2a	.
1A	2d	1e	1a	1ee
.	2c#	.	.	.
=90	=90	=90	=90	=90
2.d	2d	2r	2f	2.ff
.	2.a	2d	2d	.
4d	.	.	.	4ff
2c#	.	1a	2e	2ee
.	4g	.	.	.
[2d	4f	.	2d	[2ff
.	4e	.	.	.
=91	=91	=91	=91	=91
4d]	1d	2f	1r	4ff]
4c	.	.	.	4ee
2B-	.	2g	.	1dd
1A	2e	1a	2r	.
.	2e	.	2a	2cc#
=92	=92	=92	=92	=92
1G	2.g	1d	2.b-	2dd
.	.	.	.	2g
.	4g	.	4b-	.
1r	2f#	1r	2a	2.dd
.	[2g	.	[2b-	.
.	.	.	.	4dd
=93	=93	=93	=93	=93
0r	4g]	1r	4b-]	1g
.	4f	.	4a	.
.	2e-	.	1g	.
.	1d	2r	.	1a
.	.	[2d	2f#	.
=94	=94	=94	=94	=94
1G	0r	2d]	1g	2b
.	.	1e	.	2b
1A	.	.	1r	1cc
.	.	[2f	.	.
=95	=95	=95	=95	=95
1B-	1r	2f]	1d	1dd
.	.	2g	.	.
2.A	2r	[1a	1e	2cc
.	[2c	.	.	[2cc
4G	.	.	.	.
=96	=96	=96	=96	=96
1F	2c]	1a]	1f	2cc]
.	1d	.	.	4b-
.	.	.	.	4a
2G	.	2g	2d	2b-
2A	[2f	4f	2c	[2a
.	.	4e	.	.
=97	=97	=97	=97	=97
1B-	4f]	4d	1d	2a]
.	4e	4c	.	.
.	1d	2d	.	2g
1A	.	1e	2r	1a
.	2c	.	[2a	.
=98	=98	=98	=98	=98
0D	2.f	2r	2a]	1r
.	.	1d	2a	.
.	4g	.	.	.
.	1a	.	1f	2r
.	.	2d	.	[2dd
=99	=99	=99	=99	=99
0r	1d	1B-	1b-	2dd]
.	.	.	.	2dd
.	1r	1e-	2g	2b-
.	.	.	2b-	2g
=100	=100	=100	=100	=100
0r	1r	2c	4a	4cc
.	.	.	4g	4b-
.	.	2e-	1g	4a
.	.	.	.	4g
.	2r	1d	.	2a
.	2d	.	2f#	2a
=101	=101	=101	=101	=101
2r	1d	4G	2g	1b-
.	.	4A	.	.
2G	.	4B-	2g	.
.	.	4c	.	.
1G	1B-	1d	1g	2b-
.	.	.	.	2g
=102	=102	=102	=102	=102
1F	2.f	2r	1c	2a
.	.	2f	.	2a
.	4e	.	.	.
2.B-	4d	2f	1r	[1b-
.	4e	.	.	.
.	2f	2d	.	.
4A	.	.	.	.
=103	=103	=103	=103	=103
2G	4e	4g	1r	2b-]
.	4d	4f	.	.
2B-	1d	4e	.	2g
.	.	4d	.	.
1A	.	2e	2r	1a
.	2c#	2e	2a	.
=104	=104	=104	=104	=104
1D	1d	2f	2a	2r
.	.	2d	2f	2dd
1r	1r	2.g	1b-	1dd
.	.	4f	.	.
=105	=105	=105	=105	=105
1r	1A	1e	2.a	1cc
.	.	.	4g	.
2r	[1a	4d	4f	1ff
.	.	4e	4e	.
2d	.	4f	4d	.
.	.	4g	4e	.
=106	=106	=106	=106	=106
1d	2a]	1a	4f	4dd
.	.	.	4g	4ee
.	2f	.	4a	4ff
.	.	.	4b-	4dd
2c	2g	2r	2.cc	2ee
2c	[2a	2e	.	2ee
.	.	.	4b-	.
=107	=107	=107	=107	=107
1d	2a]	2f	2a	0dd
.	1g	2g	2b-	.
1d	.	2a	1a	.
.	2f#	[2d	.	.
=108	=108	=108	=108	=108
1G	1g	4d]	0g	0dd
.	.	4c	.	.
.	.	4B	.	.
.	.	4A	.	.
1G	1d	1B	.	.
=109	=109	=109	=109	=109
1C	1g	1c	1e	1ee
2.F	1c	[1A	[1a	[1ff
4E	.	.	.	.
=110	=110	=110	=110	=110
2D	2d	0A]	0a]	2ff]
2C#	2e	.	.	2ee
1D	1f	.	.	1dd
=111	=111	=111	=111	=111
2AA	1e	1A	0a	2cc#
2A	.	.	.	2ee
1d	2r	1r	.	1ff
.	2d	.	.	.
=112	=112	=112	=112	=112
2c#	2a	0r	2r	2ee
1d	2a	.	2d	2.ff
.	2f	.	2a	.
.	.	.	.	4ee
2G	2g	.	2b-	[2dd
=113	=113	=113	=113	=113
1A	2e	2r	2.a	2dd]
.	2e	2A	.	2cc#
.	.	.	4a	.
1r	1f	1d	1a	1dd
=114	=114	=114	=114	=114
0r	2e	2c#	2r	1a
.	2.f	1d	2d	.
.	.	.	2f	1b-
.	4e	.	.	.
.	[2d	2G	2g	.
=115	=115	=115	=115	=115
2r	2d]	1A	2e	1a
2A	2c#	.	2e	.
1B-	2d	1r	1d	2r
.	2d	.	.	2dd
=116	=116	=116	=116	=116
2B-	1f	2r	0r	2dd
2A	.	2a	.	2cc
2F	2f	2a	.	2a
2G	2e	2g	.	2b-
=117	=117	=117	=117	=117
1A	1c	2e	2r	1cc
.	.	2f	2a	.
1G	2d	1g	1b-	2r
.	[2B-	.	.	2dd
=118	=118	=118	=118	=118
0r	4B-]	1f	2b-	1ff
.	4c	.	.	.
.	1d	.	2a	.
.	.	2d	2f	2ff
.	4c	[2e	2g	2ee
.	4B-	.	.	.
=119	=119	=119	=119	=119
0r	2A	4e]	2a	2cc
.	.	4c	.	.
.	2G	1g	2b-	2dd
.	2c	.	1a	2ee
.	2d	2f	.	2ff
=120	=120	=120	=120	=120
1r	1G	2.g	1b-	4ee
.	.	.	.	4dd
.	.	.	.	1dd
.	.	4f	.	.
2r	1A	1e	2.a	.
2A	.	.	.	2cc#
.	.	.	4g	.
=121	=121	=121	=121	=121
1B-	2r	2d	4f	1.dd
.	.	.	4e	.
.	2f	2d	4d	.
.	.	.	4c	.
2B-	2d	1f	2B-	.
2A	[2a	.	2c	4cc
.	.	.	.	4b-
=122	=122	=122	=122	=122
2F	2a]	2f	2d	4a
.	.	.	.	4f
2G	4g	2e	2.e	2b-
.	4f	.	.	.
1A	2e	2c	.	[1a
.	.	.	4c	.
.	[2d	2d	2f	.
=123	=123	=123	=123	=123
1A	2d]	1e	2e	1a]
.	2c#	.	2a	.
1G	2d	1g	2b	2r
.	2G	.	2b	2dd
=124	=124	=124	=124	=124
1C	2r	1g	1cc	1ee-
.	2G	.	.	.
[1G	1B-	2.g	2.b-	2ee-
.	.	.	.	2dd
.	.	8f	4a	.
.	.	8e	.	.
=125	=125	=125	=125	=125
2G]	2B-	2d	2g	2b-
4F	2A	1f	2a	2cc
4E	.	.	.	.
2.D	2.F	.	2b-	[1dd
.	.	2f	[2a	.
4E	4G	.	.	.
=126	=126	=126	=126	=126
2F#	2A	0d	2a]	2dd]
2G	2B-	.	1g	2dd
1D	1A	.	.	1dd
.	.	.	2f#	.
=127	=127	=127	=127	=127
0G	0G	0d	0g	0b
==	==	==	==	==
*-	*-	*-	*-	*-
!!!CDT: 1525/^1526/-1594/2/2
!!!OCY: Italia
!!!AGN: Mass (Parody)
!!!AST: renaissance, vocal
!!!ASW: Motet 1572 (Palestrina)
!!!PWK: Masses, Book 8
!!!RNB: Cadence finals: A,D
!!!YOR: Le Opere Complete, v. 24, p. 86
!!!YOO: Rome, Italy: Fratelli Scalera
!!!END: 1992//
!!!EED: John Miller
!!!YEC: Copyright 2000, John Miller
!!!YEN: United States of America
!!!YEM: Rights to all derivative electronic formats reserved.
!!!YEM: Refer to licensing agreement for further details.
!!!YEM: This file must be accompanied by the licensing agreement.
!!!YEM: A copy of the licensing agreement may be found at http://www.music-cog.ohio-state.edu/HumdrumDatabases/Palestrina/license.txt
!!!EMD: converted to Humdrum by Bret Aarden
